static/assets/img/icons/theme/design/subtract.svg

<svg height="24" viewBox="0 0 24 24" width="24" xmlns="http://www.w3.org/2000/svg"><g fill="none" fill-rule="evenodd"><path d="m0 0h24v24h-24z" opacity="0"/><g fill="#000"><path d="m6 9v6c0 1.6568542 1.34314575 3 3 3h6v.8181818c0 1.4143063-.7675119 2.1818182-2.1818182 2.1818182h-7.63636362c-1.41430632 0-2.18181818-.7675119-2.18181818-2.1818182v-7.6363636c0-1.41430634.76751186-2.1818182 2.18181818-2.1818182z" fill-rule="nonzero"/><path d="m10.1818182 4h7.6363636c1.4143063 0 2.1818182.76751186 2.1818182 2.18181818v7.63636362c0 1.4143063-.7675119 2.1818182-2.1818182 2.1818182h-7.6363636c-1.41430634 0-2.1818182-.7675119-2.1818182-2.1818182v-7.63636362c0-1.41430632.76751186-2.18181818 2.1818182-2.18181818z" opacity=".3"/></g></g></svg>

<svg width="24px" height="24px" viewBox="0 0 24 24" version="1.1" xmlns="http://www.w3.org/2000/svg" xmlns:xlink="http://www.w3.org/1999/xlink">
    <title>Icon For Substract</title>
    <g stroke="none" stroke-width="1" fill="none" fill-rule="evenodd">
        <rect opacity="0" x="0" y="0" width="24" height="24"></rect>
        <path d="M6,9 L6,15 C6,16.6568542 7.34314575,18 9,18 L15,18 L15,18.8181818 C15,20.2324881 14.2324881,21 12.8181818,21 L5.18181818,21 C3.76751186,21 3,20.2324881 3,18.8181818 L3,11.1818182 C3,9.76751186 3.76751186,9 5.18181818,9 L6,9 Z" fill="#000000" fill-rule="nonzero"></path>
        <path d="M10.1818182,4 L17.8181818,4 C19.2324881,4 20,4.76751186 20,6.18181818 L20,13.8181818 C20,15.2324881 19.2324881,16 17.8181818,16 L10.1818182,16 C8.76751186,16 8,15.2324881 8,13.8181818 L8,6.18181818 C8,4.76751186 8.76751186,4 10.1818182,4 Z" fill="#000000" opacity="0.3"></path>
    </g>
</svg>
